src/main/webapp/scripts/pdfjs/v54530/web/images/toolbarButton-viewAttachments.svg

<svg fill="none" height="16" viewBox="0 0 16 16" width="16" xmlns="http://www.w3.org/2000/svg"><path d="m3.5 3.75c0-2.07121 1.67879-3.75 3.75-3.75s3.75 1.67879 3.75 3.75v6.5c0 1.2422-1.00779 2.25-2.25 2.25s-2.25-1.0078-2.25-2.25v-6.75h1.5v6.75c0 .4138.33621.75.75.75s.75-.3362.75-.75v-6.5c0-1.24279-1.00721-2.25-2.25-2.25s-2.25 1.00721-2.25 2.25v7c0 2.0708 1.67921 3.75 3.75 3.75 2.0708 0 3.75-1.6792 3.75-3.75v-7.25h1.5v7.25c0 2.8992-2.3508 5.25-5.25 5.25-2.89921 0-5.25-2.3508-5.25-5.25z" fill="#000"/></svg>

<svg width="16" height="16" viewBox="0 0 16 16" fill="none" xmlns="http://www.w3.org/2000/svg">
<path d="M3.5 3.75C3.5 1.67879 5.17879 0 7.25 0C9.32121 0 11 1.67879 11 3.75V10.25C11 11.4922 9.99221 12.5 8.75 12.5C7.50779 12.5 6.5 11.4922 6.5 10.25V3.5H8V10.25C8 10.6638 8.33621 11 8.75 11C9.16379 11 9.5 10.6638 9.5 10.25V3.75C9.5 2.50721 8.49279 1.5 7.25 1.5C6.00721 1.5 5 2.50721 5 3.75V10.75C5 12.8208 6.67921 14.5 8.75 14.5C10.8208 14.5 12.5 12.8208 12.5 10.75V3.5H14V10.75C14 13.6492 11.6492 16 8.75 16C5.85079 16 3.5 13.6492 3.5 10.75V3.75Z" fill="black"/>
</svg>
